X: 23888
T: Lobster, The
R: reel
M: 4/4
K: Amajor
|:A3c BcAc|BcAc BAFD|EFAB cBAB|ceec B2e2:|
cd|e2(3cBA e2(3cBA|e2(3cBA BAFA|e2(3cBA e2(3cBA|e2(3cBA BBcd|
e3 f eeaf|eeaf ecBc|dddB cccc|BBAc BAF2||

